X: 0
T: Adoration
L: 1/4
M: 3/2
Q: 1/4=340
K: Bb
[V: P1]  F F | F3 F F F | G4 G G | F3 F B B | c4"^Refrain" B c | d3 d e d | d2 c2 A B | c3 c d c | c2 B2 B B | B3 B B F | G4 B c | d3 d c c | B4|]
[V: P2]  D D | D3 F E D | E4 E E | F3 F D D | F4 F F | F3 F F F | F2 F2 A G | F3 F F E | E2 D2 D E | F3 E F F | E4 D E | F3 F E E | D4|]
[V: P3]  B, B, | B,3 B, A, B, | B,4 B, B, | B,3 B, B, B, | A,4 G, A, | B,3 B, C B, | B,2 A,2 C B, | A,3 A, B, A, | A,2 B,2 B, B, | B,3 B, B, B, | B,4 B, B, | B,3 F, G, A, | B,4|]
[V: P4]  B,, B,, | B,,3 D, C, B,, | E,4 E, E, | D,3 D, G, G, | F,4 F, F, | B,,3 B,, A,, B,, | F,2 F,2 F, F, | F,3 F, F, F, | B,,2 B,,2 B,, C, | D,3 G, D, D, | E,4 G, G, | F,3 F, F, F, | B,,4|]

